Numix/32/mimetypes/application-x-xz-compressed-tar.svg

<?xml version="1.0" encoding="UTF-8" standalone="no"?>
<svg
   xmlns:dc="http://purl.org/dc/elements/1.1/"
   xmlns:cc="http://creativecommons.org/ns#"
   xmlns:rdf="http://www.w3.org/1999/02/22-rdf-syntax-ns#"
   xmlns:svg="http://www.w3.org/2000/svg"
   xmlns="http://www.w3.org/2000/svg"
   xmlns:sodipodi="http://sodipodi.sourceforge.net/DTD/sodipodi-0.dtd"
   xmlns:inkscape="http://www.inkscape.org/namespaces/inkscape"
   width="32"
   height="32"
   viewBox="0 0 32 32"
   id="svg2"
   version="1.1"
   inkscape:version="0.91 r13725"
   sodipodi:docname="application-x-xz-compressed-tar.svg">
  <metadata
     id="metadata26">
    <rdf:RDF>
      <cc:Work
         rdf:about="">
        <dc:format>image/svg+xml</dc:format>
        <dc:type
           rdf:resource="http://purl.org/dc/dcmitype/StillImage" />
      </cc:Work>
    </rdf:RDF>
  </metadata>
  <defs
     id="defs24" />
  <sodipodi:namedview
     pagecolor="#ffffff"
     bordercolor="#666666"
     borderopacity="1"
     objecttolerance="10"
     gridtolerance="10"
     guidetolerance="10"
     inkscape:pageopacity="0"
     inkscape:pageshadow="2"
     inkscape:window-width="1366"
     inkscape:window-height="704"
     id="namedview22"
     showgrid="false"
     inkscape:zoom="1"
     inkscape:cx="14.737981"
     inkscape:cy="1.9929269"
     inkscape:window-x="0"
     inkscape:window-y="27"
     inkscape:window-maximized="1"
     inkscape:current-layer="svg2">
    <inkscape:grid
       type="xygrid"
       id="grid3060" />
  </sodipodi:namedview>
  <path
     style="fill:#c19553;fill-opacity:1"
     d="M 5.335888,2.977e-4 C 4.648414,3.126e-4 4,0.6767885 4,1.3940318 L 4,30.606268 C 4,31.282757 4.687474,32 5.335888,32 l 21.327332,0 c 0.648414,0 1.335888,-0.717243 1.335888,-1.393732 L 28,9.0000003 l -9,-9 z"
     id="path4-1"
     inkscape:connector-curvature="0"
     sodipodi:nodetypes="ssssssccs" />
  <path
     style="fill:#000000;fill-opacity:0.19599998"
     d="m 4,24 0,6.667969 C 4,31.316407 4.6875,32 5.332031,32 l 21.335938,0 C 27.3125,32 28,31.316407 28,30.667969 L 28,24 z"
     id="path10"
     inkscape:connector-curvature="0" />
  <path
     style="fill:#ffffff"
     inkscape:connector-curvature="0"
     id="path16"
     d="m 12.804,24.993841 0,0.990825 -1.652275,0 0,5.009175 -1.151725,0 0,-5.009175 -1.796,0 0,-0.990825 4.6,0"
     sodipodi:nodetypes="ccccccccc" />
  <path
     style="fill:#000000;fill-opacity:0.19599998"
     d="M 21,9.0000003 28,16 28,9.0000003 z"
     id="path6-4"
     inkscape:connector-curvature="0"
     sodipodi:nodetypes="cccc" />
  <path
     style="fill:#ffffff;fill-opacity:0.39200003"
     d="m 19.000306,2.977e-4 8.991594,8.9997026 -7.613262,0 c -0.672951,0 -1.378332,-0.7134896 -1.378332,-1.3864402 z"
     id="path8-6"
     inkscape:connector-curvature="0"
     sodipodi:nodetypes="ccssc" />
  <path
     style="fill:#ffffff"
     inkscape:connector-curvature="0"
     id="path20"
     d="m 23.132275,25.828704 c -0.926018,1.38183 -1.752695,2.779019 -2.533491,4.178899 l 2.624268,0 0,0.986238 -4.023052,0 0,-0.688072 c 0.772904,-1.49755 1.642916,-2.942454 2.475724,-4.321103 l -2.347811,0 0,-0.990825 3.804362,0 0,0.834863"
     sodipodi:nodetypes="ccccccccccc" />
  <rect
     style="fill:#f9f9f9;fill-opacity:1;fill-rule:evenodd;stroke:none"
     id="rect3008"
     width="3"
     height="3"
     x="9"
     y="7.1075442e-07" />
  <rect
     style="fill:#f9f9f9;fill-opacity:1;fill-rule:evenodd;stroke:none"
     id="rect3010"
     width="3"
     height="3"
     x="12"
     y="3.0000007" />
  <rect
     style="fill:#f9f9f9;fill-opacity:1;fill-rule:evenodd;stroke:none"
     id="rect3012"
     width="3"
     height="3"
     x="9"
     y="6" />
  <rect
     style="fill:#f9f9f9;fill-opacity:1;fill-rule:evenodd;stroke:none"
     id="rect3014"
     width="3"
     height="3"
     x="12"
     y="9" />
  <rect
     style="fill:#f9f9f9;fill-opacity:1;fill-rule:evenodd;stroke:none"
     id="rect3016"
     width="3"
     height="3"
     x="9"
     y="12" />
  <rect
     style="fill:#f9f9f9;fill-opacity:1;fill-rule:evenodd;stroke:none"
     id="rect3020"
     width="6"
     height="6"
     x="9"
     y="16" />
  <path
     style="fill:#ffffff"
     inkscape:connector-curvature="0"
     id="path16-2"
     d="M 17.088101,31 C 16.749398,30.193083 16.352366,29.434002 15.976681,28.703591 15.545669,29.486294 15.18822,30.231857 14.824433,31 L 13.4,31 c 0.52558,-1.101617 1.209262,-2.13619 1.837247,-3.171887 L 13.508872,25 l 1.4199,0 1.047909,1.920551 L 17.079031,25 l 1.32463,0 -1.687544,2.800611 C 17.429737,28.835561 17.996581,29.889115 18.508,31 l -1.419899,0"
     sodipodi:nodetypes="ccccccccccccc" />
</svg>

<svg xmlns="http://www.w3.org/2000/svg" viewBox="0 0 32 32">
 <path d="m 5.336 0 c -0.687 0 -1.336 0.676 -1.336 1.394 l 0 29.21 c 0 0.676 0.687 1.394 1.336 1.394 l 21.327 0 c 0.648 0 1.336 -0.717 1.336 -1.394 l 0.001 -21.606 l -9 -9 z" style="fill:#c19553;fill-opacity:1"/>
 <path d="m 4 24 0 6.668 c 0 0.648 0.688 1.332 1.332 1.332 l 21.336 0 c 0.645 0 1.332 -0.684 1.332 -1.332 l 0 -6.668 z" style="fill:#000;fill-opacity:0.196"/>
 <path d="m 12.804 24.994 0 0.991 -1.652 0 0 5.01 -1.152 0 0 -5.01 -1.796 0 0 -0.991 4.6 0" style="fill:#fff"/>
 <path d="m 21 9 7 7 0 -7 z" style="fill:#000;fill-opacity:0.196"/>
 <path d="m 19 0 8.992 9 -7.613 0 c -0.673 0 -1.378 -0.713 -1.378 -1.386 z" style="fill:#fff;fill-opacity:0.392"/>
 <path d="m 23.13 25.829 c -0.926 1.382 -1.753 2.779 -2.533 4.179 l 2.624 0 0 0.986 -4.02 0 0 -0.688 c 0.773 -1.498 1.643 -2.942 2.476 -4.321 l -2.348 0 0 -0.991 3.804 0 0 0.835" style="fill:#fff"/>
 <rect width="3" height="3" x="9" style="fill:#f9f9f9;fill-opacity:1;stroke:none;fill-rule:evenodd"/>
 <rect width="3" height="3" x="12" y="3" style="fill:#f9f9f9;fill-opacity:1;stroke:none;fill-rule:evenodd"/>
 <rect width="3" height="3" x="9" y="6" style="fill:#f9f9f9;fill-opacity:1;stroke:none;fill-rule:evenodd"/>
 <rect width="3" height="3" x="12" y="9" style="fill:#f9f9f9;fill-opacity:1;stroke:none;fill-rule:evenodd"/>
 <rect width="3" height="3" x="9" y="12" style="fill:#f9f9f9;fill-opacity:1;stroke:none;fill-rule:evenodd"/>
 <rect width="6" height="6" x="9" y="16" style="fill:#f9f9f9;fill-opacity:1;stroke:none;fill-rule:evenodd"/>
 <path d="m 17.09 31 c -0.339 -0.807 -0.736 -1.566 -1.111 -2.296 -0.431 0.783 -0.788 1.528 -1.152 2.296 l -1.424 0 c 0.526 -1.102 1.209 -2.136 1.837 -3.172 l -1.728 -2.828 l 1.42 0 1.048 1.921 l 1.102 -1.921 l 1.325 0 -1.688 2.801 c 0.714 1.035 1.28 2.089 1.792 3.199 l -1.42 0" style="fill:#fff"/>
</svg>
